
SACKKernel.start


(


)

// BULL

e = ();
e.instrument = \sine;

engine.play(e)

addSynthDefs

SACKSequencer

a = SackInclude.load("SackPatterns.scd").value
a

start


SynthDescLib.browse

e = ()
e.instrument = \sine
e.freq = 0.1
e.play

\sine